contributed-vectors/afk_arena.svg

<svg width="192" height="192" viewBox="0 0 192 192" fill="none" xmlns="http://www.w3.org/2000/svg">
<path d="M22.5 101C16.9892 110.093 5 119.5 5 119.5C5 119.5 16.609 120.121 24 121C25.3889 121.165 26.719 121.357 28 121.571C28 121.571 30.822 119.174 32.5 117.5C34.36 115.645 37 112.5 37 112.5C37 112.5 35.3909 117.099 33.5 119.5C32.624 120.612 31 122.126 31 122.126C43.4766 124.655 51.5581 129 66 129C96 129 100.239 109.83 100.5 90.5C100.768 70.6176 83.5618 57.0006 64.5 57C41 56.9992 32.5 84.5 22.5 101Z" fill="#F58F8A"/>
<path d="M169.003 100C174.514 109.093 186.503 118.5 186.503 118.5C186.503 118.5 174.894 119.121 167.503 120C166.114 120.165 164.784 120.357 163.503 120.571C163.503 120.571 160.681 118.174 159.003 116.5C157.143 114.645 154.503 111.5 154.503 111.5C154.503 111.5 156.112 116.099 158.003 118.5C158.879 119.612 160.503 121.126 160.503 121.126C148.026 123.655 139.945 128 125.503 128C95.5031 128 91.2639 108.83 91.0031 89.5C90.7348 69.6176 107.941 56.0006 127.003 56C150.503 55.9992 159.003 83.5 169.003 100Z" fill="#99CDCD"/>
<path fill-rule="evenodd" clip-rule="evenodd" d="M125 127C116.5 127 101 114.542 101 99.175C101 83.8077 103 64 125 64C149 64 149 83.8077 149 99.175C149 99.3656 148.998 99.5558 148.993 99.7454C150.558 99.0319 152.031 98.8684 153 99.6587C155.14 101.404 155.617 103.79 153 107C150.955 109.508 147.176 112.825 144.6 113.324C139.37 121.51 130.642 127 125 127Z" fill="#FCECDC"/>
<path d="M138 100.999C134.993 101.546 132 103.999 132 103.999L145 102.888C145 102.888 143.5 100 138 100.999Z" fill="#E2C9B0"/>
<path d="M134 96.9988C130.993 97.5452 131 100.21 131 100.21C131 100.21 137.5 96.9988 143.5 98.0002C140.769 95.4589 139.5 95.9994 134 96.9988Z" fill="#E2C9B0"/>
<g filter="url(#filter0_i_1029:569)">
<path d="M144.5 102.502C144.5 105.539 142.09 109.501 138.5 109.501C134.91 109.501 132 107.039 132 104.001C132 104.001 135.91 102.782 138.5 102.502C140.83 102.251 144.5 102.502 144.5 102.502Z" fill="white"/>
</g>
<path d="M142 103.078C142 105.214 140.458 108 138.16 108C135.862 108 134 106.268 134 104.132C134 104.132 136.502 103.275 138.16 103.079C139.651 102.902 142 103.078 142 103.078Z" fill="#F9DE81"/>
<path d="M139 103.047C139 104.328 138.614 106 138.04 106C137.466 106 137 104.961 137 103.679C137 103.679 137.626 103.165 138.04 103.047C138.413 102.941 139 103.047 139 103.047Z" fill="#C39A54"/>
<path d="M112 100.999C115.007 101.546 118 103.999 118 103.999L105 102.888C105 102.888 106.5 100 112 100.999Z" fill="#E2C9B0"/>
<path d="M116 96.9988C119.007 97.5452 119 100.21 119 100.21C119 100.21 112.5 96.9988 106.5 98.0002C109.231 95.4589 110.5 95.9994 116 96.9988Z" fill="#E2C9B0"/>
<g filter="url(#filter1_i_1029:569)">
<path d="M105.5 102.502C105.5 105.539 107.91 109.501 111.5 109.501C115.09 109.501 118 107.039 118 104.001C118 104.001 114.09 102.782 111.5 102.502C109.17 102.251 105.5 102.502 105.5 102.502Z" fill="white"/>
</g>
<path d="M108 103.078C108 105.214 109.542 108 111.84 108C114.138 108 116 106.268 116 104.132C116 104.132 113.498 103.275 111.84 103.079C110.349 102.902 108 103.078 108 103.078Z" fill="#F9DE81"/>
<path d="M111 103.047C111 104.328 111.386 106 111.96 106C112.534 106 113 104.961 113 103.679C113 103.679 112.374 103.165 111.96 103.047C111.587 102.941 111 103.047 111 103.047Z" fill="#C39A54"/>
<path d="M185.852 118.536C181.43 116.712 165.411 109.7 158.003 101C153.78 96.0405 149.485 91.4951 146 86.5C140.071 78.0002 136.5 68.5 136.5 68.5C136.5 68.5 140.402 77.668 143.5 84.5C145.184 88.2132 146 94 146 94C146 94 137.667 97.272 134.5 97C131.776 96.7661 123.5 97 123.5 97C123.5 97 120.369 90.1541 119.5 86.5C118.5 82.2949 116.503 70.5 116.503 70.5C116.503 70.5 116.986 80.9891 118.5 87.5C119.284 90.8702 121 96 121 96C121 96 117 96.5 112 96C108.003 95.6003 105 93.5 105 93.5C105 93.5 105.424 98.5253 108.003 105C110.37 110.942 116.503 119 116.503 119C116.503 119 108.323 118.861 102.5 117C99.7472 116.12 98.0236 114.764 96.5 114.5C92.5 108 91.1005 96.7191 91.0031 89.5C90.7348 69.6176 107.941 56.0006 127.003 56C145.858 55.9994 155.057 73.7025 163.121 89.2233C165.108 93.0471 167.026 96.7385 169.003 100C174.514 109.093 186.503 118.5 186.503 118.5C186.503 118.5 186.271 118.512 185.852 118.536Z" fill="#96DFD3"/>
<path fill-rule="evenodd" clip-rule="evenodd" d="M66 128C74.5 128 90 116.136 90 101.5C90 86.8645 88 68 66 68C42 68 42 86.8645 42 101.5C42 101.581 42.0005 101.662 42.0014 101.743C40.4388 101.031 38.9682 100.869 38 101.659C35.8597 103.404 35.3826 105.79 38 109C40.1164 111.596 44.0913 115.059 46.6669 115.366C51.9228 122.946 60.4523 128 66 128Z" fill="#FCECDC"/>
<path d="M59 86.9993C59 86.9993 54.3415 86.2889 51.5 86.9993C48.9585 87.6347 45.5 89.9993 45.5 89.9993" stroke="#FFB0AC" stroke-linecap="round"/>
<path d="M56.5 90.5L60 95L48.5 94L56.5 90.5Z" fill="#E2C9B0"/>
<path d="M63 107.87L65 110L64.5556 103L63 107.87Z" fill="#E2C9B0"/>
<path d="M123 113.87L125 116L124.556 109L123 113.87Z" fill="#E2C9B0"/>
<path d="M75.5 90L72 94.5L83.5 93.5L75.5 90Z" fill="#E2C9B0"/>
<path d="M5.65122 119.536C10.0735 117.712 26.092 110.7 33.5 102C36.8995 98.0075 38.3632 94.2238 39.8684 90.3328C41.146 87.0302 42.4535 83.6504 45 80C50.9295 71.5002 63 60.5 63 60.5C63 60.5 54.0984 68.668 51 75.5C49.316 79.2132 48 85.5 48 85.5C48 85.5 52.833 84.272 56 84C58.7236 83.7661 63 84 63 84C63 84 63.6314 78.1541 64.5 74.5C65.4996 70.2949 68 64 68 64C68 64 66.3303 70.9535 66 75.5C65.7595 78.8107 66 84 66 84C66 84 74.1519 82.4934 79 84C82.4231 85.0637 87 88.5 87 88.5C87 88.5 86.0791 99.5253 83.5 106C81.1331 111.942 75 120 75 120C75 120 83.1774 114.861 89 113C91.7528 112.12 95.8849 111.364 97.4085 111.1C99.7503 104.916 100.403 97.7191 100.5 90.5C100.768 70.6176 83.5618 57.0006 64.5 57C45.6452 56.9994 36.4465 74.7025 28.3817 90.2233C26.3948 94.0471 24.4767 97.7385 22.5 101C16.9892 110.093 5 119.5 5 119.5C5 119.5 5.23198 119.512 5.65122 119.536Z" fill="#FFB0AC"/>
<path d="M51.5 102C54.6445 101.841 59.5 101 59.5 101C59.5 101 56.2799 103.112 54 104C51.7494 104.876 48 105.5 48 105.5L50 103.5L46 102C46 102 49.3548 102.108 51.5 102Z" fill="#8E6F60"/>
<path d="M81 102C77.8555 101.841 73 101 73 101C73 101 76.2201 103.112 78.5 104C80.7506 104.876 84.5 105.5 84.5 105.5L82.5 103.5L86.5 102C86.5 102 83.1452 102.108 81 102Z" fill="#8E6F60"/>
<circle cx="67.5" cy="116.5" r="1.5" fill="#E2C9B0"/>
<ellipse cx="125.5" cy="120.5" rx="1.5" ry="0.5" fill="#E2C9B0"/>
<path d="M148.338 71.8198C144.29 75.6428 142 80.4035 142 80.4035C142 80.4035 142 88.4822 153.619 87.9773C167.336 87.3812 173.159 70.3051 173.159 70.3051L164.709 74.3444C164.709 74.3444 174.216 67.7805 175.8 56.1673C176.711 49.4935 174.216 39 174.216 39C174.216 39 170.727 51.2639 164.709 58.187C160.418 63.1244 153.114 67.3079 148.338 71.8198Z" fill="#F9DE81"/>
<path d="M45.6625 64.8198C49.7099 68.6428 52 73.4035 52 73.4035C52 73.4035 52 81.4822 40.3812 80.9773C26.6641 80.3812 20.8405 63.3051 20.8405 63.3051L29.2906 67.3444C29.2906 67.3444 19.7843 60.7805 18.1999 49.1673C17.2894 42.4935 19.7843 32 19.7843 32C19.7843 32 23.2729 44.2639 29.2906 51.187C33.5823 56.1244 40.8857 60.3079 45.6625 64.8198Z" fill="#F9DE81"/>
<defs>
<filter id="filter0_i_1029:569" x="132" y="102.391" width="12.5" height="7.11133" filterUnits="userSpaceOnUse" color-interpolation-filters="sRGB">
<feFlood flood-opacity="0" result="BackgroundImageFix"/>
<feBlend mode="normal" in="SourceGraphic" in2="BackgroundImageFix" result="shape"/>
<feColorMatrix in="SourceAlpha" type="matrix" values="0 0 0 0 0 0 0 0 0 0 0 0 0 0 0 0 0 0 127 0" result="hardAlpha"/>
<feOffset dy="1"/>
<feComposite in2="hardAlpha" operator="arithmetic" k2="-1" k3="1"/>
<feColorMatrix type="matrix" values="0 0 0 0 0.290196 0 0 0 0 0.290196 0 0 0 0 0.290196 0 0 0 1 0"/>
<feBlend mode="normal" in2="shape" result="effect1_innerShadow_1029:569"/>
</filter>
<filter id="filter1_i_1029:569" x="105.5" y="102.391" width="12.5" height="7.11133" filterUnits="userSpaceOnUse" color-interpolation-filters="sRGB">
<feFlood flood-opacity="0" result="BackgroundImageFix"/>
<feBlend mode="normal" in="SourceGraphic" in2="BackgroundImageFix" result="shape"/>
<feColorMatrix in="SourceAlpha" type="matrix" values="0 0 0 0 0 0 0 0 0 0 0 0 0 0 0 0 0 0 127 0" result="hardAlpha"/>
<feOffset dy="1"/>
<feComposite in2="hardAlpha" operator="arithmetic" k2="-1" k3="1"/>
<feColorMatrix type="matrix" values="0 0 0 0 0.290196 0 0 0 0 0.290196 0 0 0 0 0.290196 0 0 0 1 0"/>
<feBlend mode="normal" in2="shape" result="effect1_innerShadow_1029:569"/>
</filter>
</defs>
</svg>

<svg xmlns="http://www.w3.org/2000/svg" width="192" height="192" fill="none"><path fill="#F58F8A" d="M22.5 101C16.99 110.093 5 119.5 5 119.5s11.609.621 19 1.5c1.389.165 2.719.357 4 .571 0 0 2.822-2.397 4.5-4.071 1.86-1.855 4.5-5 4.5-5s-1.61 4.599-3.5 7c-.876 1.112-2.5 2.626-2.5 2.626C43.477 124.655 51.558 129 66 129c30 0 34.239-19.17 34.5-38.5.268-19.882-16.938-33.5-36-33.5-23.5 0-32 27.5-42 44Z"/><path fill="#99CDCD" d="M169.003 100c5.511 9.093 17.5 18.5 17.5 18.5s-11.609.621-19 1.5a85.32 85.32 0 0 0-4 .571s-2.822-2.397-4.5-4.071c-1.86-1.855-4.5-5-4.5-5s1.609 4.599 3.5 7c.876 1.112 2.5 2.626 2.5 2.626-12.477 2.529-20.558 6.874-35 6.874-30 0-34.24-19.17-34.5-38.5-.268-19.882 16.938-33.5 36-33.5 23.5 0 32 27.5 42 44Z"/><path fill="#FCECDC" fill-rule="evenodd" d="M125 127c-8.5 0-24-12.458-24-27.825C101 83.808 103 64 125 64c24 0 24 19.808 24 35.175 0 .19-.002.38-.007.57 1.565-.713 3.038-.877 4.007-.086 2.14 1.745 2.617 4.131 0 7.341-2.045 2.508-5.824 5.825-8.4 6.324C139.37 121.51 130.642 127 125 127Z" clip-rule="evenodd"/><path fill="#E2C9B0" d="M138 100.999c-3.007.547-6 3-6 3l13-1.111s-1.5-2.888-7-1.889ZM134 96.999c-3.007.546-3 3.211-3 3.211s6.5-3.211 12.5-2.21c-2.731-2.541-4-2-9.5-1.001Z"/><g filter="url(#a)"><path fill="#fff" d="M144.5 102.502c0 3.037-2.41 6.999-6 6.999s-6.5-2.462-6.5-5.5c0 0 3.91-1.219 6.5-1.499 2.33-.251 6 0 6 0Z"/></g><path fill="#F9DE81" d="M142 103.078c0 2.136-1.542 4.922-3.84 4.922s-4.16-1.732-4.16-3.868c0 0 2.502-.857 4.16-1.053 1.491-.177 3.84-.001 3.84-.001Z"/><path fill="#C39A54" d="M139 103.047c0 1.281-.386 2.953-.96 2.953s-1.04-1.039-1.04-2.321c0 0 .626-.514 1.04-.632.373-.106.96 0 .96 0Z"/><path fill="#E2C9B0" d="M112 100.999c3.007.547 6 3 6 3l-13-1.111s1.5-2.888 7-1.889ZM116 96.999c3.007.546 3 3.211 3 3.211s-6.5-3.211-12.5-2.21c2.731-2.541 4-2 9.5-1.001Z"/><g filter="url(#b)"><path fill="#fff" d="M105.5 102.502c0 3.037 2.41 6.999 6 6.999s6.5-2.462 6.5-5.5c0 0-3.91-1.219-6.5-1.499-2.33-.251-6 0-6 0Z"/></g><path fill="#F9DE81" d="M108 103.078c0 2.136 1.542 4.922 3.84 4.922s4.16-1.732 4.16-3.868c0 0-2.502-.857-4.16-1.053-1.491-.177-3.84-.001-3.84-.001Z"/><path fill="#C39A54" d="M111 103.047c0 1.281.386 2.953.96 2.953s1.04-1.039 1.04-2.321c0 0-.626-.514-1.04-.632-.373-.106-.96 0-.96 0Z"/><path fill="#96DFD3" d="M185.852 118.536c-4.422-1.824-20.441-8.836-27.849-17.536-4.223-4.96-8.518-9.505-12.003-14.5-5.929-8.5-9.5-18-9.5-18s3.902 9.168 7 16c1.684 3.713 2.5 9.5 2.5 9.5s-8.333 3.272-11.5 3c-2.724-.234-11 0-11 0s-3.131-6.846-4-10.5c-1-4.205-2.997-16-2.997-16s.483 10.49 1.997 17c.784 3.37 2.5 8.5 2.5 8.5s-4 .5-9 0c-3.997-.4-7-2.5-7-2.5s.424 5.025 3.003 11.5c2.367 5.942 8.5 14 8.5 14s-8.18-.139-14.003-2c-2.753-.88-4.476-2.236-6-2.5-4-6.5-5.4-17.78-5.497-25-.268-19.882 16.938-33.5 36-33.5 18.855 0 28.054 17.703 36.118 33.223 1.987 3.824 3.905 7.516 5.882 10.777 5.511 9.093 17.5 18.5 17.5 18.5l-.651.036Z"/><path fill="#FCECDC" fill-rule="evenodd" d="M66 128c8.5 0 24-11.864 24-26.5C90 86.865 88 68 66 68c-24 0-24 18.865-24 33.5l.001.243c-1.562-.712-3.033-.874-4.001-.084-2.14 1.745-2.617 4.131 0 7.341 2.116 2.596 6.091 6.059 8.667 6.366C51.923 122.946 60.452 128 66 128Z" clip-rule="evenodd"/><path stroke="#FFB0AC" stroke-linecap="round" d="M59 87s-4.658-.711-7.5 0c-2.541.635-6 3-6 3"/><path fill="#E2C9B0" d="M56.5 90.5 60 95l-11.5-1 8-3.5ZM63 107.87l2 2.13-.444-7L63 107.87ZM123 113.87l2 2.13-.444-7-1.556 4.87ZM75.5 90 72 94.5l11.5-1-8-3.5Z"/><path fill="#FFB0AC" d="M5.651 119.536C10.073 117.712 26.092 110.7 33.5 102c3.4-3.993 4.863-7.776 6.368-11.667C41.146 87.03 42.453 83.65 45 80c5.93-8.5 18-19.5 18-19.5s-8.902 8.168-12 15c-1.684 3.713-3 10-3 10s4.833-1.228 8-1.5c2.724-.234 7 0 7 0s.631-5.846 1.5-9.5C65.5 70.295 68 64 68 64s-1.67 6.954-2 11.5c-.24 3.31 0 8.5 0 8.5s8.152-1.507 13 0c3.423 1.064 8 4.5 8 4.5s-.92 11.025-3.5 17.5c-2.367 5.942-8.5 14-8.5 14s8.177-5.139 14-7c2.753-.88 6.885-1.636 8.409-1.9 2.341-6.184 2.994-13.38 3.091-20.6.268-19.882-16.938-33.5-36-33.5-18.855 0-28.053 17.703-36.118 33.223C26.395 94.047 24.477 97.74 22.5 101 16.99 110.093 5 119.5 5 119.5l.651.036Z"/><path fill="#8E6F60" d="M51.5 102c3.145-.159 8-1 8-1s-3.22 2.112-5.5 3c-2.25.876-6 1.5-6 1.5l2-2-4-1.5s3.355.108 5.5 0ZM81 102c-3.144-.159-8-1-8-1s3.22 2.112 5.5 3c2.25.876 6 1.5 6 1.5l-2-2 4-1.5s-3.355.108-5.5 0Z"/><circle cx="67.5" cy="116.5" r="1.5" fill="#E2C9B0"/><ellipse cx="125.5" cy="120.5" fill="#E2C9B0" rx="1.5" ry=".5"/><path fill="#F9DE81" d="M148.338 71.82C144.29 75.643 142 80.404 142 80.404s0 8.078 11.619 7.573c13.717-.596 19.54-17.672 19.54-17.672l-8.45 4.04s9.507-6.564 11.091-18.178c.911-6.674-1.584-17.167-1.584-17.167s-3.489 12.264-9.507 19.187c-4.291 4.937-11.595 9.12-16.371 13.633ZM45.663 64.82C49.71 68.643 52 73.404 52 73.404s0 8.078-11.619 7.573c-13.717-.596-19.54-17.672-19.54-17.672l8.45 4.04S19.784 60.78 18.2 49.166C17.29 42.493 19.784 32 19.784 32s3.489 12.264 9.507 19.187c4.291 4.937 11.595 9.12 16.372 13.633Z"/><defs><filter id="a" width="12.5" height="7.111" x="132" y="102.391" color-interpolation-filters="sRGB" filterUnits="userSpaceOnUse"><feFlood flood-opacity="0" result="BackgroundImageFix"/><feBlend in="SourceGraphic" in2="BackgroundImageFix" result="shape"/><feColorMatrix in="SourceAlpha" result="hardAlpha" values="0 0 0 0 0 0 0 0 0 0 0 0 0 0 0 0 0 0 127 0"/><feOffset dy="1"/><feComposite in2="hardAlpha" k2="-1" k3="1" operator="arithmetic"/><feColorMatrix values="0 0 0 0 0.290196 0 0 0 0 0.290196 0 0 0 0 0.290196 0 0 0 1 0"/><feBlend in2="shape" result="effect1_innerShadow_1029:569"/></filter><filter id="b" width="12.5" height="7.111" x="105.5" y="102.391" color-interpolation-filters="sRGB" filterUnits="userSpaceOnUse"><feFlood flood-opacity="0" result="BackgroundImageFix"/><feBlend in="SourceGraphic" in2="BackgroundImageFix" result="shape"/><feColorMatrix in="SourceAlpha" result="hardAlpha" values="0 0 0 0 0 0 0 0 0 0 0 0 0 0 0 0 0 0 127 0"/><feOffset dy="1"/><feComposite in2="hardAlpha" k2="-1" k3="1" operator="arithmetic"/><feColorMatrix values="0 0 0 0 0.290196 0 0 0 0 0.290196 0 0 0 0 0.290196 0 0 0 1 0"/><feBlend in2="shape" result="effect1_innerShadow_1029:569"/></filter></defs></svg>
